assets/images/Rating.svg

<svg width="110" height="16" viewBox="0 0 110 16" fill="none" xmlns="http://www.w3.org/2000/svg">
<g clip-path="url(#clip0_43_427)">
<path d="M9.60141 0.779204L9.60215 0.780733L11.6078 4.91511L11.7231 5.15286L11.9845 5.1915L16.4656 5.85382C16.4658 5.85385 16.466 5.85388 16.4662 5.85391C16.652 5.88206 16.8068 6.01251 16.8667 6.19411C16.9255 6.37228 16.8776 6.57116 16.7433 6.70409L16.7431 6.70428L13.4929 9.92615L13.3087 10.1088L13.3519 10.3647L14.1222 14.9164C14.1222 14.9167 14.1222 14.9169 14.1223 14.9172C14.153 15.1035 14.0758 15.2938 13.9186 15.4084C13.7679 15.5182 13.5651 15.5332 13.3934 15.4429C13.3931 15.4427 13.3928 15.4425 13.3924 15.4424L9.39264 13.3029L9.15681 13.1767L8.92098 13.3029L4.92118 15.4424C4.9209 15.4425 4.92062 15.4427 4.92034 15.4428C4.75137 15.5317 4.54673 15.5174 4.39237 15.4064C4.23938 15.2965 4.16021 15.1053 4.1914 14.9168C4.19142 14.9167 4.19144 14.9166 4.19146 14.9164L4.95861 10.3643L5.00169 10.1087L4.81756 9.92615L1.56738 6.70428L1.56718 6.70409C1.43527 6.57346 1.38607 6.37391 1.44501 6.19038C1.50149 6.0145 1.65578 5.88243 1.8444 5.8539C1.84456 5.85387 1.84473 5.85385 1.84489 5.85382L6.32289 5.19149L6.58427 5.15283L6.69959 4.91511L8.70436 0.782506C8.70448 0.782256 8.70461 0.782006 8.70473 0.781756C8.79035 0.607713 8.96346 0.5 9.15369 0.5C9.34663 0.5 9.52 0.609921 9.60141 0.779204Z" fill="#F3CC3C" stroke="#F3CC3C"/>
</g>
<g clip-path="url(#clip1_43_427)">
<path d="M32.5677 0.779204L32.5685 0.780733L34.5741 4.91511L34.6894 5.15286L34.9508 5.1915L39.4319 5.85382C39.4321 5.85385 39.4323 5.85388 39.4325 5.85391C39.6184 5.88206 39.7731 6.01251 39.833 6.19411C39.8918 6.37228 39.8439 6.57116 39.7096 6.70409L39.7094 6.70428L36.4592 9.92615L36.275 10.1088L36.3183 10.3647L37.0885 14.9164C37.0885 14.9167 37.0885 14.9169 37.0886 14.9172C37.1193 15.1035 37.0421 15.2938 36.8849 15.4084C36.7342 15.5182 36.5314 15.5332 36.3597 15.4429C36.3594 15.4427 36.3591 15.4425 36.3587 15.4424L32.3589 13.3029L32.1231 13.1767L31.8873 13.3029L27.8875 15.4424C27.8872 15.4425 27.8869 15.4427 27.8867 15.4428C27.7177 15.5317 27.513 15.5174 27.3587 15.4064C27.2057 15.2965 27.1265 15.1053 27.1577 14.9168C27.1577 14.9167 27.1577 14.9166 27.1578 14.9164L27.9249 10.3643L27.968 10.1087L27.7839 9.92615L24.5337 6.70428L24.5335 6.70409C24.4016 6.57346 24.3524 6.37391 24.4113 6.19038C24.4678 6.0145 24.6221 5.88243 24.8107 5.8539C24.8109 5.85387 24.811 5.85385 24.8112 5.85382L29.2892 5.19149L29.5506 5.15283L29.6659 4.91511L31.6707 0.782506C31.6708 0.782256 31.6709 0.782006 31.671 0.781756C31.7567 0.607713 31.9298 0.5 32.12 0.5C32.3129 0.5 32.4863 0.609921 32.5677 0.779204Z" fill="#F3CC3C" stroke="#F3CC3C"/>
</g>
<g clip-path="url(#clip2_43_427)">
<path d="M55.5345 0.779204L55.5353 0.780733L57.5409 4.91511L57.6562 5.15286L57.9176 5.1915L62.3987 5.85382C62.3989 5.85385 62.3991 5.85388 62.3993 5.85391C62.5851 5.88206 62.7399 6.01251 62.7998 6.19411C62.8586 6.37228 62.8107 6.57116 62.6764 6.70409L62.6762 6.70428L59.426 9.92615L59.2418 10.1088L59.285 10.3647L60.0553 14.9164C60.0553 14.9167 60.0553 14.9169 60.0554 14.9172C60.0861 15.1035 60.0089 15.2938 59.8517 15.4084C59.701 15.5182 59.4982 15.5332 59.3265 15.4429C59.3262 15.4427 59.3259 15.4425 59.3255 15.4424L55.3257 13.3029L55.0899 13.1767L54.8541 13.3029L50.8543 15.4424C50.854 15.4425 50.8537 15.4427 50.8535 15.4428C50.6845 15.5317 50.4798 15.5174 50.3255 15.4064C50.1725 15.2965 50.0933 15.1053 50.1245 14.9168C50.1245 14.9167 50.1245 14.9166 50.1246 14.9164L50.8917 10.3643L50.9348 10.1087L50.7507 9.92615L47.5005 6.70428L47.5003 6.70409C47.3684 6.57346 47.3192 6.37391 47.3781 6.19038C47.4346 6.0145 47.5889 5.88243 47.7775 5.8539C47.7777 5.85387 47.7778 5.85385 47.778 5.85382L52.256 5.19149L52.5174 5.15283L52.6327 4.91511L54.6375 0.782506C54.6376 0.782256 54.6377 0.782006 54.6378 0.781756C54.7235 0.607713 54.8966 0.5 55.0868 0.5C55.2797 0.5 55.4531 0.609921 55.5345 0.779204Z" fill="#F3CC3C" stroke="#F3CC3C"/>
</g>
<g clip-path="url(#clip3_43_427)">
<path d="M78.5008 0.779204L78.5016 0.780733L80.5072 4.91511L80.6225 5.15286L80.884 5.1915L85.365 5.85382C85.3652 5.85385 85.3654 5.85388 85.3656 5.85391C85.5515 5.88206 85.7062 6.01251 85.7661 6.19411C85.8249 6.37228 85.777 6.57116 85.6427 6.70409L85.6425 6.70428L82.3923 9.92615L82.2081 10.1088L82.2514 10.3647L83.0216 14.9164C83.0216 14.9167 83.0217 14.9169 83.0217 14.9172C83.0524 15.1035 82.9752 15.2938 82.818 15.4084C82.6673 15.5182 82.4645 15.5332 82.2928 15.4429C82.2925 15.4427 82.2922 15.4425 82.2919 15.4424L78.2921 13.3029L78.0562 13.1767L77.8204 13.3029L73.8206 15.4424C73.8203 15.4425 73.82 15.4427 73.8198 15.4428C73.6508 15.5317 73.4461 15.5174 73.2918 15.4064C73.1388 15.2965 73.0596 15.1053 73.0908 14.9168C73.0908 14.9167 73.0909 14.9166 73.0909 14.9164L73.858 10.3643L73.9011 10.1087L73.717 9.92615L70.4668 6.70428L70.4666 6.70409C70.3347 6.57346 70.2855 6.37391 70.3444 6.19038C70.4009 6.0145 70.5552 5.88243 70.7438 5.8539C70.744 5.85387 70.7441 5.85385 70.7443 5.85382L75.2223 5.19149L75.4837 5.15283L75.599 4.91511L77.6038 0.782506C77.6039 0.782256 77.604 0.782006 77.6041 0.781756C77.6898 0.607713 77.8629 0.5 78.0531 0.5C78.246 0.5 78.4194 0.609921 78.5008 0.779204Z" fill="#F3CC3C" stroke="#F3CC3C"/>
</g>
<g clip-path="url(#clip4_43_427)">
<path d="M101.467 0.779204L101.468 0.780733L103.474 4.91511L103.589 5.15286L103.85 5.1915L108.331 5.85382C108.332 5.85385 108.332 5.85388 108.332 5.85391C108.518 5.88206 108.673 6.01251 108.732 6.19411C108.791 6.37228 108.743 6.57116 108.609 6.70409L108.609 6.70428L105.359 9.92615L105.174 10.1088L105.218 10.3647L105.988 14.9164C105.988 14.9167 105.988 14.9169 105.988 14.9172C106.019 15.1035 105.941 15.2938 105.784 15.4084C105.634 15.5182 105.431 15.5332 105.259 15.4429C105.259 15.4427 105.258 15.4425 105.258 15.4424L101.258 13.3029L101.023 13.1767L100.787 13.3029L96.7869 15.4424C96.7866 15.4425 96.7863 15.4427 96.7861 15.4428C96.6171 15.5317 96.4125 15.5174 96.2581 15.4064C96.1051 15.2965 96.0259 15.1053 96.0571 14.9168C96.0571 14.9167 96.0572 14.9166 96.0572 14.9164L96.8243 10.3643L96.8674 10.1087L96.6833 9.92615L93.4331 6.70428L93.4329 6.70409C93.301 6.57346 93.2518 6.37391 93.3107 6.19038C93.3672 6.0145 93.5215 5.88243 93.7101 5.8539C93.7103 5.85387 93.7105 5.85385 93.7106 5.85382L98.1886 5.19149L98.45 5.15283L98.5653 4.91511L100.57 0.782506C100.57 0.782256 100.57 0.782006 100.57 0.781756C100.656 0.607713 100.829 0.5 101.019 0.5C101.212 0.5 101.386 0.609921 101.467 0.779204Z" stroke="#F3CC3C"/>
</g>
<defs>
<clipPath id="clip0_43_427">
<rect width="17.9665" height="16" fill="white" transform="translate(0.16748)"/>
</clipPath>
<clipPath id="clip1_43_427">
<rect width="17.9665" height="16" fill="white" transform="translate(23.1338)"/>
</clipPath>
<clipPath id="clip2_43_427">
<rect width="17.9665" height="16" fill="white" transform="translate(46.1006)"/>
</clipPath>
<clipPath id="clip3_43_427">
<rect width="17.9665" height="16" fill="white" transform="translate(69.0669)"/>
</clipPath>
<clipPath id="clip4_43_427">
<rect width="17.9665" height="16" fill="white" transform="translate(92.0332)"/>
</clipPath>
</defs>
</svg>

<svg xmlns="http://www.w3.org/2000/svg" width="110" height="16" fill="none">
  <g clip-path="url(#a)">
    <path fill="#F3CC3C" stroke="#F3CC3C"
      d="M9.601.78h.001l2.006 4.135.115.238.261.038 4.482.663a.501.501 0 0 1 .277.85l-3.25 3.222-.184.183.043.256.77 4.551v.001a.507.507 0 0 1-.203.491.497.497 0 0 1-.527.034l-4-2.14-.235-.125-.236.126-4 2.14a.503.503 0 0 1-.73-.526l.768-4.553.043-.255-.184-.183-3.25-3.222a.507.507 0 0 1-.123-.514.497.497 0 0 1 .4-.336l4.478-.663.261-.038.116-.238L8.704.783V.782a.5.5 0 0 1 .897-.003Z" />
  </g>
  <g clip-path="url(#b)">
    <path fill="#F3CC3C" stroke="#F3CC3C"
      d="m32.568.78 2.006 4.135.115.238.262.038 4.48.663h.002a.5.5 0 0 1 .277.85l-3.25 3.222-.185.183.043.256.77 4.551v.001a.507.507 0 0 1-.203.491.497.497 0 0 1-.526.034l-4-2.14-.236-.125-.236.126-4 2.14a.503.503 0 0 1-.73-.526l.768-4.553.043-.255-.184-.183-3.25-3.222a.507.507 0 0 1-.123-.514.497.497 0 0 1 .4-.336l4.478-.663.262-.038.115-.238L31.67.783V.782a.5.5 0 0 1 .897-.003Z" />
  </g>
  <g clip-path="url(#c)">
    <path fill="#F3CC3C" stroke="#F3CC3C"
      d="m55.535.78 2.006 4.135.115.238.262.038 4.48.663h.001a.501.501 0 0 1 .277.85l-3.25 3.222-.184.183.043.256.77 4.551v.001a.507.507 0 0 1-.203.491.497.497 0 0 1-.525.035h-.002l-4-2.14-.235-.126-.236.126-4 2.14a.503.503 0 0 1-.73-.526l.768-4.553.043-.255-.184-.183-3.25-3.222a.507.507 0 0 1-.123-.514.497.497 0 0 1 .4-.336l4.478-.663.261-.038.116-.238L54.638.783V.782a.5.5 0 0 1 .897-.003Z" />
  </g>
  <g clip-path="url(#d)">
    <path fill="#F3CC3C" stroke="#F3CC3C"
      d="M78.5.78h.002l2.005 4.135.115.238.262.038 4.481.663a.5.5 0 0 1 .278.85l-3.25 3.222-.185.183.043.256.77 4.551v.001a.507.507 0 0 1-.203.491.497.497 0 0 1-.526.034l-4-2.14-.236-.125-.236.126-4 2.14a.503.503 0 0 1-.73-.526l.768-4.553.043-.255-.184-.183-3.25-3.222a.507.507 0 0 1-.123-.514.497.497 0 0 1 .4-.336l4.478-.663.262-.038.115-.238L77.604.783V.782a.5.5 0 0 1 .897-.003Z" />
  </g>
  <g clip-path="url(#e)">
    <path stroke="#F3CC3C"
      d="M101.467.78h.001l2.006 4.135.115.238.261.038 4.481.663h.001a.499.499 0 0 1 .277.85l-3.25 3.222-.185.183.044.256.77 4.551v.001a.507.507 0 0 1-.204.491.496.496 0 0 1-.525.035h-.001l-4-2.14-.235-.126-.236.126-4 2.14a.503.503 0 0 1-.73-.526l.767-4.553.043-.255-.184-.183-3.25-3.222a.507.507 0 0 1-.122-.514.497.497 0 0 1 .4-.336l4.478-.663.261-.038.115-.238L100.57.783V.782a.5.5 0 0 1 .897-.003Z" />
  </g>
  <defs>
    <clipPath id="a">
      <path fill="#fff" d="M.167 0h17.966v16H.167z" />
    </clipPath>
    <clipPath id="b">
      <path fill="#fff" d="M23.134 0H41.1v16H23.134z" />
    </clipPath>
    <clipPath id="c">
      <path fill="#fff" d="M46.1 0h17.967v16H46.1z" />
    </clipPath>
    <clipPath id="d">
      <path fill="#fff" d="M69.067 0h17.966v16H69.067z" />
    </clipPath>
    <clipPath id="e">
      <path fill="#fff" d="M92.033 0H110v16H92.033z" />
    </clipPath>
  </defs>
</svg>
